X:98
T:The Green Wood
B:Joyce, P. W.; "Old Irish Folk Music and Songs"
R:song air
L:1/8
M:C
K:F
"Slow"\
EAAA A2 GA|F2 G/E/D D4|Adde f>dec|dA FG A4|
A2 GA FDFG|AFED d2 d>e|f>dec dAGA|F2 E>D D4||
